X: 22364
T: Lad From Mt. Kisco, The
R: jig
M: 6/8
K: Dmajor
A,|:DFA BGF|E2e fdB|AFA BdB|AFD EDA,|
DFA BGF|Ege fdB|AFA BdB|AFE D3:|
d2f ~a3|baf afd|Adf edB|Aaf edB|
Adf ~a3|baf afd|Adf edB|AFE D3:|

